!!!!SEGMENT: pl-sa--143-a-iii-43--006_anonim--missa-gregoriano-canto-sanctus.krn
!!!cenid: 18xx:1291
!!!COM: Anonim
!!!COM-rismID: pe30004985
!!!CDT:
!!!CNT:
!!!OPR: Missa Gregoriano Canto
!!!OTL: Sanctus
!!!OMV: 006
!!!PDT: 1815
!!!AGN: Sacred; Mass
!!!SMS-siglum: PL-SA
!!!SMS-shelfmark: 143/A III 43
!!!SMS-shelfwork: 001-006 M
!!!SMS-variant:
!!!SMS-altvar:
!!!NIFC-rismSourceID: 1001035509
!!!NIFC-islandoraID:
!!!URL-pdf-islandora:
!!!URL-scan: https://bc.bdsandomierz.pl/dlibra/publication/1500/edition/1468/content @EN{Scan in the Sandomierz Diocese Digital Library} @PL{Skany w portalu Cyfrowa Biblioteka Diecezjalna w Sandomierzu}
!!!ONB-nifc: UWAGA: części Mszy: 1. Kyrie, 2. Et in terra, 3. Patrem,. 4. Et incarnatus, 5. Et resurrexit, 6. Sanctus, 7. Benedictus, 8. Agnus Dei
!!!AIN: 1 organ 2 soprn
!!!key: F
**kern	**kern	**kern	**text	**kern	**text
*part3	*part3	*part2	*part2	*part1	*part1
*staff4	*staff3	*staff2	*staff2	*staff1	*staff1
*I"Organo.	*I"Organo.	*I"Canto 2do.	*	*I"Canto_Primo.	*
*I'org	*I'org	*I'S 2	*	*I'S 1	*
*Iorgan	*Iorgan	*Isoprn	*	*Isoprn	*
*ICklav	*ICklav	*ICvox	*	*ICvox	*
*IGacmp	*IGacmp	*	*	*	*
*clefF4	*clefC1	*clefC1	*	*clefC1	*
*k[b-]	*k[b-]	*k[b-]	*	*k[b-]	*
*F:	*F:	*F:	*	*F:	*
*M2/2	*M2/2	*M2/2	*	*M2/2	*
*met(c|)	*met(c|)	*met(c|)	*	*met(c|)	*
=1	=1	=1	=1	=1	=1
*	*^	*	*	*	*
!LO:TX:t=P:problem=metrum obrócone	!LO:TX:t=P:problem=metrum obrócone	!	!LO:TX:t=P:problem=metrum obrócone	!	!LO:TX:t=P:problem=metrum obrócone	!
!LO:TX:a:i:t=Sanctus	!LO:TX:a:t=adagio	!	!	!	!	!
4F\	4cc/	4a\	4a\	San-	4cc\	San-
4F\	4a/	4f\	4f\	.	4a\	.
4F\	4b-/	4g\	4g\	.	4b-\	.
4F\	4cc/	4a\	4a\	.	4cc\	.
=2	=2	=2	=2	=2	=2	=2
*	*	*2\right	*2\right	*	*2\right	*
4G\	2dd/	2b-\	2b-\	.	2dd\	.
4E\	.	.	.	.	.	.
4F\	2cc/	2a\	2a\	-ctus	2cc\	-ctus
4C/	.	.	.	.	.	.
*	*v	*v	*	*	*	*
=3	=3	=3	=3	=3	=3
4C/	4b-\	4g/	San-	4b-\	San-
4C/	4g\	4e/	.	4g\	.
4C/	4a\	4f/	.	4a\	.
4C/	4b-\	4g/	.	4b-\	.
=4	=4	=4	=4	=4	=4
*	*^	*	*	*	*
4F\	2cc/	2a\	2a\	.	2cc\	.
4C/	.	.	.	.	.	.
4E\	2b-/	2g\	2g\	-ctus.	2b-\	-ctus
4C/	.	.	.	.	.	.
*	*v	*v	*	*	*	*
=5	=5	=5	=5	=5	=5
4A\	4cc\	4a\	San-	4cc\	San-
4A\	4cc\	4a\	-ctus	4cc\	-ctus
8A\L	8cc\L	8a\L	Do-	8cc\L	Do-
8G\J	8b-\J	8g\J	-mi-	8b-\J	-mi-
4F\	4a\	4f/	-nus	4a\	-nus
=6	=6	=6	=6	=6	=6
*	*^	*	*	*	*
4C/	2b-/	2g\	2g\	De-	2b-\	De-
4E/	.	.	.	.	.	.
4G/	2b-/	2g\	2g\	-us	2b-\	-us
4E/	.	.	.	.	.	.
=7	=7	=7	=7	=7	=7	=7
8C\L	4b-/	4g\	4g\	Sa-	4b-\	Sa-
8c\	.	.	.	.	.	.
8G\	4a/	4f\	4f\	-ba-	4a\	-ba-
8E\J	.	.	.	.	.	.
2C;/	2g 2c;/	2ryy	2e;/	-hoth	2g;\	-hoth
*	*v	*v	*	*	*	*
!LO:LB:g=original	!LO:LB:g=original	!LO:LB:g=original	!	!	!
=8||	=8||	=8||	=8||	=8||	=8||
*k[b-]	*k[b-]	*k[b-]	*	*k[b-]	*
*M3/6	*M3/6	*M3/1	*	*M3/1	*
*2\right	*	*	*	*	*
!LO:TX:a:i:t=Gloria	!LO:TX:a:i:t=allo.	!	!	!	!
2F\	2cc\	2a\	Ple-	2cc\	Ple-
2F\	2b-\	2g\	-ni	2b-\	-ni
2F\	2a\	2f/	sunt	2a\	sunt
!	!	!	!	!LO:LB:g=original	!
=9	=9	=9	=9	=9	=9
2F\	2ff\	2a\	Cae-	2ff\	Cae-
2F\	2ee\	2cc\	-li	2ee\	-li
2F\	2dd\	2b-\	et	2dd\	et
=10	=10	=10	=10	=10	=10
4F\	2dd\	2b-\	ter-	2dd\	ter-
4G\	.	.	.	.	.
4A\	2cc\	2a\	-ra	2cc\	-ra
4G\	.	.	.	.	.
4A\	2r	2r	.	2r	.
4F\	.	.	.	.	.
=11	=11	=11	=11	=11	=11
*	*^	*	*	*	*
2C/	2b-/	2g\	2g/	ple-	2b-\	ple-
2E\	2b-/	2g\	2g/	-ni	2b-\	-ni
2C/	2b-/	2g\	2g/	sunt	2b-\	sunt
=12	=12	=12	=12	=12	=12	=12
2C/	2.g 2.e/	2.ryy	2.e/	Cae-	2.g\	Cae-
2E\	.	.	.	.	.	.
.	4a/	4f\	4f/	.	4a\	.
2C/	2b-/	2g\	2g\	-li	2b-\	-li
=13	=13	=13	=13	=13	=13	=13
2F\	2cc/	2a\	2a\	Cae-	2cc\	Cae-
2A\	2cc/	2a\	2a\	-li	2cc\	-li
2F\	2cc/	2a\	2a\	et	2cc\	et
=14	=14	=14	=14	=14	=14	=14
2F\	2.a/	2.f\	2.f/	ter-	2.a\	ter-
2A\	.	.	.	.	.	.
.	4b-/	4g\	4g/	.	4b-\	.
2F\	2cc/	2a\	2a\	-ra	2cc\	-ra
*	*v	*v	*	*	*	*
!LO:LB:g=original	!LO:LB:g=original	!	!	!	!
=15	=15	=15	=15	=15	=15
2.B-\	2.dd\	2.b-\	glo-	2.dd\	glo-
4B-\	4dd\	4b-\	-ri-	4dd\	-ri-
2A\	2cc\	2a\	-a	2cc\	-a
=16	=16	=16	=16	=16	=16
*	*	*	*ij	*	*ij
2.G\	2.b-\	2.g/	glo-	2.b-\	glo-
4G\	4b-\	4g/	-ri-	4b-\	-ri-
2F\	2a\	2f/	-a	2a\	-a
*	*	*	*Xij	*	*Xij
=17	=17	=17	=17	=17	=17
2E\	2a\	2f/	tu-	2a\	tu-
4C\	2g\	2e/	-a	2g\	-a
4D\	.	.	.	.	.
4E\	2r	2r	.	2r	.
4C\	.	.	.	.	.
!	!	!LO:LB:g=original	!	!LO:LB:g=original	!
=18	=18	=18	=18	=18	=18
1F	4a\	4f/	Oſ-	4a\	O-
.	4b-\	4g/	.	4b-\	.
.	4cc\	4a/	.	4cc\	.
.	4dd\	4b-/	-san-	4dd\	-san-
2F\	2cc\	2a\	-na	2cc\	-na
=19	=19	=19	=19	=19	=19
4C/	4b-\	4g\	in	4b-\	in
4D/	4b-\	4g\	e-	4b-\	e-
4E/	2g\	2e/	-xel-	2g\	-xel-
4F/	.	.	.	.	.
4G/	2b-\	2g/	-cis	2b-\	-cis
4E/	.	.	.	.	.
=20	=20	=20	=20	=20	=20
1F	4a\	4f/	Oſ-	4a\	O-
.	4b-\	4g/	.	4b-\	.
.	4cc\	4a/	.	4cc\	.
.	4dd\	4b-/	-san-	4dd\	-san-
2F\	2cc\	2a\	-na	2cc\	-na
!LO:LB:g=original	!LO:LB:g=original	!	!	!	!
=21	=21	=21	=21	=21	=21
4C/	4b-\	4g/	in	4b-\	in
4D/	4b-\	4g/	e-	4b-\	e-
4E/	2g\	2e/	-xel-	2g\	-xel-
4F/	.	.	.	.	.
4G/	2b-\	2g/	.	2b-\	.
4E/	.	.	.	.	.
=22	=22	=22	=22	=22	=22
!	!LO:N:n=3:vis=1	!	!	!	!
!	!LO:N:n=2:vis=1	!	!	!LO:N:vis=1	!
1F 1C 1FF;	1.a 1.f 1.c;	1.f;	-cis	1.a	-cis
2ryy	.	.	.	.	.
==	==	==	==	==;	==
*-	*-	*-	*-	*-	*-
!!!system-decoration: [(s1,s2)]{(s3,s4)}
!!!ENC: Katarzyna Serwa
!!!END: 2020-12-07
!!!ENC: Marta Lawrence
!!!END: 2022-03-27
